X:1
T:James Gibb editions
T:Guerra non ho - Gorzanis
%%score [ 1 2 3 ]
L:1/8
Q:1/4=90
M:2/4
K:D
V:1 treble-8 nm="Tenor I" snm="T I"
V:2 treble-8 nm="Tenor II" snm="T II"
V:3 bass nm="Bass" snm="B"
V:1
"^Guerra non ho da far""^Giacomo Gorzanis\n(1520-79)" B2 BB | B2 B2 | c4 | d2 dd | e2 e2 | f2 f2 | %6
w: Guer- ra non|ho da|tar,|guer- ra non|ho da|far, né|
 d2 B2 | c4 | B2 | e2 | fe dB | c2 dB- | Bc B2 | c2 z B | BB BB | c2 AA | dd cc | f2 ee | gg ee | %19
w: tro- vo|pa-|ce.|E|vò cer- can- do|sem- pre chi|* mi strug-|ge, E|chi mi può dar|vi- ta, e|chi mi può dar|vi- ta, e|chi mi può dar|
 f2 e2 | d2 ed | c4 | B4 :| %23
w: vi- ta|o- gn'hor mi|fug-|ge.|
V:2
 ^G2 GG | (^G A2) G | A4 | B2 BB | (c d2) c | d2 d2 | B2 G2 | (F2 ^A2) | B2 | c2 | dc F^G | %11
w: Guer- ra non|ho * da|far,|guer- ra non|ho * da|far, né|tro- vo|pa\- *|ce.|E|vò cer- can- do|
 ^A2 B^G- | G^A d2 | ^A2 z ^G | ^GG GG | A2 FF | BB ^AA | d2 cc | ee cc | d2 c2 | B2 B2 | %21
w: sem- pre chi|* mi strug-|ge, E|chi mi può dar|vi- ta, e|chi mi può dar|vi- ta, e|chi mi può dar|vi- ta|o- gn'hor|
 (B2 ^A2) | B4 :| %23
w: fug\- *|ge.|
V:3
 E,2 E,E, | E,2 E,2 | A,,4 | G,2 G,G, | A,2 A,2 | D,2 D,2 | G,2 E,2 | F,4 | B,,2 | C,2 | %10
w: Guer- ra non|ho da|far,|guer- ra non|ho da|far, né|tro- vo|pa-|ce.|E|
 D,A,, B,,E, | F,2 B,,E,- | E,F, B,,2 | F,2 z E, | E,E, E,E, | A,,2 D,D, | B,,B,, F,F, | D,2 A,A, | %18
w: vò cer- can- do|sem- pre chi|* mi strug-|ge, E|chi mi può dar|vi- ta, e|chi mi può dar|vi- ta, e|
 E,E, A,A, | D,2 A,,2 | B,,2 E,2 | F,4 | B,,4 :| %23
w: chi mi può dar|vi- ta|o- gn'hor|fug-|ge.|

